src/topics/icons/patreon.svg

<svg height="256" preserveAspectRatio="xMidYMid" viewBox="0 0 256 256" width="256" xmlns="http://www.w3.org/2000/svg"><path d="m127.996927.00236401c-70.6933383 0-127.996927 57.30358869-127.996927 127.99692699v127.935462h29.7127618v-127.935462c0-54.2776568 44.0060356-98.2860564 98.2860562-98.2860564 54.280021 0 98.286056 44.0060356 98.286056 98.2860564 0 52.750506-41.569214 95.784934-93.732974 98.163128-16.57407-.135676-30.704227-2.825512-36.8932039-6.633884v-42.242012c9.2371309 6.048082 20.2850919 9.574239 32.1505279 9.574239 32.453595 0 58.759819-26.306697 58.759819-58.759819 0-32.4535941-26.306697-58.7740023-58.759819-58.7740023-32.4535939 0-58.759818 26.3213538-58.759818 58.7740023v127.836174c19.3938605-.018108 39.995257.026572 58.953667 0 70.693338 0 127.996927-57.246852 127.996927-127.935462-.004728-70.6980663-57.313045-128.001655-128.001655-128.001655z" fill="#ff5900"/></svg>

<?xml version="1.0" encoding="UTF-8" standalone="no"?>
<svg width="256px" height="256px" viewBox="0 0 256 256" version="1.1" xmlns="http://www.w3.org/2000/svg" xmlns:xlink="http://www.w3.org/1999/xlink" preserveAspectRatio="xMidYMid">
    <g>
        <path d="M127.996927,0.00236400943 C57.3035887,0.00236400943 0,57.3059527 0,127.999291 L0,255.934753 L29.7127618,255.934753 L29.7127618,127.999291 C29.7127618,73.7216342 73.7187974,29.7132346 127.998818,29.7132346 C182.278839,29.7132346 226.284874,73.7192702 226.284874,127.999291 C226.284874,180.749797 184.71566,223.784225 132.5519,226.162419 C115.97783,226.026743 101.847673,223.336907 95.6586961,219.528535 L95.6586961,177.286523 C104.895827,183.334605 115.943788,186.860762 127.809224,186.860762 C160.262819,186.860762 186.569043,160.554065 186.569043,128.100943 C186.569043,95.6473489 160.262346,69.3269407 127.809224,69.3269407 C95.3556301,69.3269407 69.049406,95.6482945 69.049406,128.100943 L69.049406,255.937117 C88.4432665,255.919009 109.044663,255.963689 128.003073,255.937117 C198.696411,255.937117 256,198.690265 256,128.001655 C255.995272,57.3035887 198.686955,0 127.998345,0 L127.996927,0.00236400943 Z" fill="#FF5900"></path>
    </g>
</svg>
